static/images/pieces/mansindam/tomato/wq.svg

<svg height="52.157" width="52.157" xmlns="http://www.w3.org/2000/svg"><path d="m39.071206 3.9201414-22.551348 7.3933456-10.519858 67.017993 66.141733-.000273-10.51989-67.017953z" fill="#d6c99d" opacity=".9801" stroke="#35342f" stroke-width="1.58228" transform="matrix(.6 0 0 .6 2.635981 1.415442)"/><g fill-rule="evenodd" stroke="#000" stroke-linecap="round" stroke-linejoin="round" stroke-width="1.5" transform="matrix(.7529131 0 0 .7529131 9.137956 13.338884)"><g fill="#363530" fill-opacity=".984314" stroke="none"><circle cx="6" cy="12" r="2.75"/><circle cx="14" cy="9" r="2.75"/><circle cx="22.5" cy="8" r="2.75"/><circle cx="31" cy="9" r="2.75"/><circle cx="39" cy="12" r="2.75"/></g><g stroke-linecap="butt"><path d="m9 26c8.5-1.5 21-1.5 27 0l2.5-12.5-7.5 11.5-.3-14.1-5.2 13.6-3-14.5-3 14.5-5.2-13.6-.3 14.1-7.5-11.5z" fill="#363530" fill-opacity=".984314" stroke="#363530" stroke-opacity=".984314"/><path d="m9 26c0 2 1.5 2 2.5 4 1 1.5 1 1 .5 3.5-1.5 1-1.5 2.5-1.5 2.5-1.5 1.5.5 2.5.5 2.5 6.5 1 16.5 1 23 0 0 0 1.5-1 0-2.5 0 0 .5-1.5-1-2.5-.5-2.5-.5-2 .5-3.5 1-2 2.5-2 2.5-4-8.5-1.5-18.5-1.5-27 0z" fill="#393831" stroke="#393831"/><path d="m11 38.5a35 35 1 0 0 23 0" fill="#393831" stroke="#393831"/></g><path d="m11 29a35 35 1 0 1 23 0m-21.5 2.5h20m-21 3a35 35 1 0 0 22 0m-23 3a35 35 1 0 0 24 0" fill="none" stroke="#d6c99d"/></g></svg>

<?xml version="1.0" encoding="UTF-8" standalone="no"?>
<svg
   width="52.157"
   height="52.157"
   version="1.1"
   id="svg98222"
   sodipodi:docname="wq.svg"
   inkscape:version="1.3 (0e150ed6c4, 2023-07-21)"
   xml:space="preserve"
   xmlns:inkscape="http://www.inkscape.org/namespaces/inkscape"
   xmlns:sodipodi="http://sodipodi.sourceforge.net/DTD/sodipodi-0.dtd"
   xmlns="http://www.w3.org/2000/svg"
   xmlns:svg="http://www.w3.org/2000/svg"
   xmlns:rdf="http://www.w3.org/1999/02/22-rdf-syntax-ns#"
   xmlns:cc="http://creativecommons.org/ns#"
   xmlns:dc="http://purl.org/dc/elements/1.1/"><metadata
     id="metadata98228"><rdf:RDF><cc:Work
         rdf:about=""><dc:format>image/svg+xml</dc:format><dc:type
           rdf:resource="http://purl.org/dc/dcmitype/StillImage" /></cc:Work></rdf:RDF></metadata><defs
     id="defs98226" /><sodipodi:namedview
     pagecolor="#ffffff"
     bordercolor="#666666"
     borderopacity="1"
     objecttolerance="10"
     gridtolerance="10"
     guidetolerance="10"
     inkscape:pageopacity="0"
     inkscape:pageshadow="2"
     inkscape:window-width="3840"
     inkscape:window-height="2036"
     id="namedview98224"
     showgrid="false"
     inkscape:zoom="19.326264"
     inkscape:cx="1.7851355"
     inkscape:cy="9.4689796"
     inkscape:window-x="3828"
     inkscape:window-y="-12"
     inkscape:window-maximized="1"
     inkscape:current-layer="svg98222"
     inkscape:showpageshadow="2"
     inkscape:pagecheckerboard="0"
     inkscape:deskcolor="#d1d1d1" /><g
     transform="translate(-0.11215279,-1.6492177)"
     id="g4297"
     style="fill:#d6c99d;fill-opacity:1;stroke:#35342f;stroke-opacity:1"><g
       id="g3979"
       style="opacity:0.99;fill:#d6c99d;fill-opacity:1;stroke:#35342f;stroke-opacity:1"
       transform="matrix(0.6,0,0,0.6,2.7481337,3.0646604)"><path
         style="opacity:0.99;fill:#d6c99d;fill-opacity:1;stroke:#35342f;stroke-width:1.58228;stroke-opacity:1"
         inkscape:connector-curvature="0"
         id="path5763-7"
         d="M 39.071206,3.9201414 16.519858,11.313487 6,78.33148 72.141733,78.331207 61.621843,11.313254 Z"
         sodipodi:nodetypes="cccccc" /></g></g><g
     fill-rule="evenodd"
     stroke="#000000"
     stroke-width="1.5"
     stroke-linecap="round"
     stroke-linejoin="round"
     id="g8"
     transform="matrix(0.7529131,0,0,0.7529131,9.1379559,13.338884)"><g
       stroke="none"
       id="g5"><circle
         cx="6"
         cy="12"
         r="2.75"
         id="circle1"
         style="fill:#363530;fill-opacity:0.984314" /><circle
         cx="14"
         cy="9"
         r="2.75"
         id="circle2"
         style="fill:#363530;fill-opacity:0.984314" /><circle
         cx="22.5"
         cy="8"
         r="2.75"
         id="circle3"
         style="fill:#363530;fill-opacity:0.984314" /><circle
         cx="31"
         cy="9"
         r="2.75"
         id="circle4"
         style="fill:#363530;fill-opacity:0.984314" /><circle
         cx="39"
         cy="12"
         r="2.75"
         id="circle5"
         style="fill:#363530;fill-opacity:0.984314" /></g><path
       d="m 9,26 c 8.5,-1.5 21,-1.5 27,0 L 38.5,13.5 31,25 30.7,10.9 25.5,24.5 22.5,10 19.5,24.5 14.3,10.9 14,25 6.5,13.5 Z"
       stroke-linecap="butt"
       id="path5"
       style="fill:#363530;fill-opacity:0.984314;stroke:#363530;stroke-opacity:0.984314" /><path
       d="m 9,26 c 0,2 1.5,2 2.5,4 1,1.5 1,1 0.5,3.5 -1.5,1 -1.5,2.5 -1.5,2.5 -1.5,1.5 0.5,2.5 0.5,2.5 6.5,1 16.5,1 23,0 0,0 1.5,-1 0,-2.5 0,0 0.5,-1.5 -1,-2.5 -0.5,-2.5 -0.5,-2 0.5,-3.5 1,-2 2.5,-2 2.5,-4 -8.5,-1.5 -18.5,-1.5 -27,0 z"
       stroke-linecap="butt"
       id="path6"
       style="fill:#393831;fill-opacity:1;stroke:#393831;stroke-opacity:1" /><path
       d="m 11,38.5 a 35,35 1 0 0 23,0"
       fill="none"
       stroke-linecap="butt"
       id="path7"
       style="fill:#393831;fill-opacity:1;stroke:#393831;stroke-opacity:1" /><path
       d="m 11,29 a 35,35 1 0 1 23,0 m -21.5,2.5 h 20 m -21,3 a 35,35 1 0 0 22,0 m -23,3 a 35,35 1 0 0 24,0"
       fill="none"
       stroke="#ececec"
       id="path8"
       style="stroke:#d6c99d;stroke-opacity:1" /></g></svg>
